X:1
T: My Own Lass
C:
R:Jig
Q:180
K:D
M:6/8
L:1/16
a2|f3dd2 d4A2|Bd3B2 A6|B3cd2 e3fg2|f3ed2 e4a2|f3dd2 d4A2|Bd3B2 A3df2|g4e2 A3ce2|d6-d4a2|
f3dd2 d4A2|Bd3B2 A6|B3cd2 e3fg2|f3ed2 e4a2|f3dd2 d4A2|Bd3B2 A3df2|g4e2 A3ce2|d6-d4g2|
a4A2 f4a2|d3cB2 A6|g4e2 c4e2|d4f2 e3fg2|a4A2 f4a2|d3cB2 A6|g4e2 A3ce2|d6-d4g2|
a4A2 f4a2|d3cB2 A6|g4e2 c4e2|d4f2 e3fg2|a2g2f2 f2e2d2|d3cB2 A2d2f2|g4e2 A3ce2|d6-d4||
